X: 1690
T: Ma Seal's Gypsy
B: australian traditional tunes wiki
M:2/4
L:1/16
R: Reel
Q: 1/4=100
K:G
V:1 
dc|:"G"BcdB "D"cAEF|"G"G2 (3BdB "D"DDEF|1"G"(3GAG FG "D"c2B2|A6dc:|2"G"(3GBG FG "D"A2F2|"G"G6B2||
|:"C"c3c c2c2|e2f2 g2fe|"G"(3dgd Bd GBdg|"C"e6fe|
"G"(3dgd Bd "D"cAEF|"G"G2(3BdB "D"D2EF|"G"(3GBG FG "D"A2F2|1"G"G6B2:|2"G"G6z2||
% abcbook-tune_id 6342d53af5cbb7e08d4f78d0


% abcbook-boost 0
% abcbook-tablature 
% abcbook-transpose 
% abcbook-lastupdated 1665324378134
% abcbook-soundfonts 
% abcbook-repeats 1
% NFF Book 2008

